X: 16
T: Cliffs of Moher
M: 6/8
L: 1/8
R: jig
K:Ador
|:d |"Am" ~a3 "(G)"bag|"Am" eaf "G"ged|"Am"c2A "G" BAG|"Em"EFG "D"Acd|
"Am"eaa "(G)"bag|"Am"eaf "G"ged|"Am"c2A "G"BAG|"Em"EFG "Am"A2 :|
d |"Am"e2e "D"dBA|"Am"e2e "D"dBA|"G"GAB "D"dBA|"G"GAB dBd |
"Am"e2e dBA|"Am" e2e dBA|"G"GAB dBG|"Em"EFG "Am"A2d |
"Am"e2e "D"dBA|"Am"e2e "D"dBA|"G"GAB "D"dBA|"G"GAB dBd |
"Am"ece "G"dBd|"Am"cAc "G"BGB|"Em"EFG BAG|EDB, "Am" A,3 |]


